src/objects/clothing/1F460.svg

<svg id="emoji" viewBox="0 0 72 72" xmlns="http://www.w3.org/2000/svg">
  <g id="grid">
    <path fill="#b3b3b3" d="M68,4V68H4V4H68m4-4H0V72H72V0Z"/>
    <path fill="none" stroke="#00a5ff" stroke-miterlimit="10" stroke-width="0.1" d="M12.923,10.9583H59.0769A1.9231,1.9231,0,0,1,61,12.8814V59.0352a1.9231,1.9231,0,0,1-1.9231,1.9231H12.9231A1.9231,1.9231,0,0,1,11,59.0352V12.8813A1.923,1.923,0,0,1,12.923,10.9583Z"/>
    <rect x="16" y="4" rx="2.2537" width="40" height="64" fill="none" stroke="#00a5ff" stroke-miterlimit="10" stroke-width="0.1"/>
    <rect x="16" y="4" rx="2.2537" width="40" height="64" transform="translate(72) rotate(90)" fill="none" stroke="#00a5ff" stroke-miterlimit="10" stroke-width="0.1"/>
    <circle cx="36" cy="36" r="29" fill="none" stroke="#00a5ff" stroke-miterlimit="10" stroke-width="0.1"/>
  </g>
  <g id="color">
    <path fill="#D22F27" stroke="none" d="M25.5011,34.5613c2.9156,2.3721,5.4581,5.3848,6.7637,9.1491c4.3333,12.4937,1.0296,12.7289,4.3333,17.3456 c3.9794,5.5609,40.7244,5.1768,23.375-7.0795c0,0-12.2541,2.9795-16.9395-1.3551c0,0-5.428-17.9558-26.1409-38.379 c0,0-4.5005,2.3277-6.2424,8.0451c0,0,0.5599,2.0029,0.5599,4.5792S25.5011,34.5613,25.5011,34.5613z"/>
    <path fill="#D22F27" stroke="none" d="M25.1077,35.453c2.9156,2.3721,5.8515,4.4931,7.1571,8.2574c4.3333,12.4937,1.0296,12.7289,4.3333,17.3456 c3.9794,5.5609,40.7244,5.1768,23.375-7.0795c0,0-12.2541,2.9795-16.9395-1.3551c0,0-5.428-17.9558-26.1409-38.379 c0,0-5.5038,2.1333-7.2458,7.8506c0,0-0.6444,2.1297-0.1093,3.3639S25.1077,35.453,25.1077,35.453z"/>
    <path fill="#3F3F3F" stroke="none" stroke-linecap="round" stroke-linejoin="round" stroke-miterlimit="10" stroke-width="2" d="M19.962,33.0858l-2,27.8725h-3.8393V32.0858l-2.9125-5.982c0,0,6.6505,3.8112,10.5259,6.9115L19.962,33.0858z"/>
  </g>
  <g id="hair"/>
  <g id="skin"/>
  <g id="skin-shadow"/>
  <g id="line">
    <path fill="none" stroke="#000000" stroke-linecap="round" stroke-linejoin="round" stroke-miterlimit="10" stroke-width="2" d="M19.962,33.0858l-2,27.8725h-3.8393V32.0858l-2.9125-5.982c0,0,6.6505,3.8112,10.5259,6.9115L19.962,33.0858z"/>
    <path fill="none" stroke="#000000" stroke-linecap="round" stroke-linejoin="round" stroke-miterlimit="10" stroke-width="2" d="M25.5011,34.5613c2.9156,2.3721,5.4581,5.3848,6.7637,9.1491c4.3333,12.4937,1.0296,12.7289,4.3333,17.3456 c3.9794,5.5609,40.7244,5.1768,23.375-7.0795c0,0-12.2541,2.9795-16.9395-1.3551c0,0-5.428-17.9558-26.1409-38.379 c0,0-4.5005,2.3277-6.2424,8.0451"/>
    <path fill="none" stroke="#000000" stroke-linecap="round" stroke-linejoin="round" stroke-miterlimit="10" stroke-width="2" d="M25.5011,34.5613c2.9156,2.3721,5.4581,5.3848,6.7637,9.1491c4.3333,12.4937,1.0296,12.7289,4.3333,17.3456 c3.9794,5.5609,40.7244,5.1768,23.375-7.0795c0,0-12.2541,2.9795-16.9395-1.3551c0,0-5.428-17.9558-26.1409-38.379 c0,0-4.5005,2.3277-6.2424,8.0451"/>
  </g>
</svg>

<svg viewBox="0 0 72 72" xmlns="http://www.w3.org/2000/svg"><path fill="#b3b3b3" d="M68 4v64H4V4h64m4-4H0v72h72V0z"/><path fill="none" stroke="#00a5ff" stroke-miterlimit="10" stroke-width=".1" d="M12.923 10.958h46.154A1.923 1.923 0 0161 12.881v46.154a1.923 1.923 0 01-1.923 1.923H12.923A1.923 1.923 0 0111 59.035V12.881a1.923 1.923 0 011.923-1.923z"/><rect x="16" y="4" rx="2.254" width="40" height="64" fill="none" stroke="#00a5ff" stroke-miterlimit="10" stroke-width=".1"/><rect x="16" y="4" rx="2.254" width="40" height="64" transform="rotate(90 36 36)" fill="none" stroke="#00a5ff" stroke-miterlimit="10" stroke-width=".1"/><circle cx="36" cy="36" r="29" fill="none" stroke="#00a5ff" stroke-miterlimit="10" stroke-width=".1"/><g stroke-linecap="round" stroke-miterlimit="10" stroke-width="6" stroke="#fff" fill="none" stroke-linejoin="round"><path d="M19.962 33.086l-2 27.872h-3.84V32.086l-2.912-5.982s6.65 3.811 10.526 6.911l-1.774.07z"/><path d="M25.501 34.561c2.916 2.372 5.458 5.385 6.764 9.15 4.333 12.493 1.03 12.728 4.333 17.345 3.98 5.56 40.725 5.177 23.375-7.08 0 0-12.254 2.98-16.94-1.355 0 0-5.427-17.955-26.14-38.379 0 0-4.5 2.328-6.243 8.046"/><path d="M25.501 34.561c2.916 2.372 5.458 5.385 6.764 9.15 4.333 12.493 1.03 12.728 4.333 17.345 3.98 5.56 40.725 5.177 23.375-7.08 0 0-12.254 2.98-16.94-1.355 0 0-5.427-17.955-26.14-38.379 0 0-4.5 2.328-6.243 8.046"/></g><path fill="#D22F27" d="M25.501 34.561c2.916 2.372 5.458 5.385 6.764 9.15 4.333 12.493 1.03 12.728 4.333 17.345 3.98 5.56 40.725 5.177 23.375-7.08 0 0-12.254 2.98-16.94-1.355 0 0-5.427-17.955-26.14-38.379 0 0-4.5 2.328-6.243 8.046 0 0 .56 2.002.56 4.579s14.291 7.694 14.291 7.694z"/><path fill="#D22F27" d="M25.108 35.453c2.915 2.372 5.851 4.493 7.157 8.257 4.333 12.494 1.03 12.73 4.333 17.346 3.98 5.56 40.725 5.177 23.375-7.08 0 0-12.254 2.98-16.94-1.355 0 0-5.427-17.955-26.14-38.379 0 0-5.504 2.134-7.246 7.851 0 0-.644 2.13-.11 3.364s15.57 9.996 15.57 9.996z"/><path fill="#3F3F3F" d="M19.962 33.086l-2 27.872h-3.84V32.086l-2.912-5.982s6.65 3.811 10.526 6.911l-1.774.07z"/><g fill="none" stroke="#000" stroke-linecap="round" stroke-linejoin="round" stroke-miterlimit="10" stroke-width="2"><path d="M19.962 33.086l-2 27.872h-3.84V32.086l-2.912-5.982s6.65 3.811 10.526 6.911l-1.774.07z"/><path d="M25.501 34.561c2.916 2.372 5.458 5.385 6.764 9.15 4.333 12.493 1.03 12.728 4.333 17.345 3.98 5.56 40.725 5.177 23.375-7.08 0 0-12.254 2.98-16.94-1.355 0 0-5.427-17.955-26.14-38.379 0 0-4.5 2.328-6.243 8.046"/><path d="M25.501 34.561c2.916 2.372 5.458 5.385 6.764 9.15 4.333 12.493 1.03 12.728 4.333 17.345 3.98 5.56 40.725 5.177 23.375-7.08 0 0-12.254 2.98-16.94-1.355 0 0-5.427-17.955-26.14-38.379 0 0-4.5 2.328-6.243 8.046"/></g></svg>
